Yaru++/actions/16/exchange-positions-zorder.svg

<svg viewBox="0 0 24 24" xmlns="http://www.w3.org/2000/svg"><path d="m4 4v7h8v-7zm1 1h6v5h-6zm8 .078125v.9199219.0917969 2.9082031h1v-2.6425781a6 6 0 0 1 4 5.6445312h1a7 7 0 0 0 -6-6.921875zm-8 6.921875a7 7 0 0 0 6 6.921875v-1.011719-2.912109h-1v2.646484a6 6 0 0 1 -4-5.644531z" fill="#808080"/><path d="m14 13-.207031.207031-1.792969 1.792969v1.414062l1.5-1.5v4.085938h1v-4.085938l1.5 1.5v-1.414062l-1.792969-1.792969zm3.5 1v4.085938l-1.5-1.5v1.414062l1.792969 1.792969.207031.207031.207031-.207031 1.792969-1.792969v-1.414062l-1.5 1.5v-4.085938z" fill="#1d99f3"/></svg>

<svg xmlns="http://www.w3.org/2000/svg" viewBox="0 0 24 24">
 <defs>
  <style id="current-color-scheme" type="text/css">
   .ColorScheme-Text { color:#808080; } .ColorScheme-Highlight { color:#1d99f3; }
  </style>
 </defs>
 <path style="fill:currentColor" class="ColorScheme-Text" d="M 4 4 L 4 11 L 12 11 L 12 4 L 4 4 z M 5 5 L 11 5 L 11 10 L 5 10 L 5 5 z M 13 5.078125 L 13 5.9980469 L 13 6.0898438 L 13 8.9980469 L 14 8.9980469 L 14 6.3554688 A 6 6 0 0 1 18 12 L 19 12 A 7 7 0 0 0 13 5.078125 z M 5 12 A 7 7 0 0 0 11 18.921875 L 11 17.910156 L 11 14.998047 L 10 14.998047 L 10 17.644531 A 6 6 0 0 1 6 12 L 5 12 z"/>
 <path style="fill:currentColor" class="ColorScheme-Highlight" d="M 14 13 L 13.792969 13.207031 L 12 15 L 12 16.414062 L 13.5 14.914062 L 13.5 19 L 14.5 19 L 14.5 14.914062 L 16 16.414062 L 16 15 L 14.207031 13.207031 L 14 13 z M 17.5 14 L 17.5 18.085938 L 16 16.585938 L 16 18 L 17.792969 19.792969 L 18 20 L 18.207031 19.792969 L 20 18 L 20 16.585938 L 18.5 18.085938 L 18.5 14 L 17.5 14 z"/>
</svg>
